X:912802
T:Hallelujah 3VP2
% %score {M P9} P3
% %score 1 { ( 2 3 ) | ( 4 5 ) } ( 6 7 ) ( 8 9 ) 10 ( 11 12 )
B:
H:
C:
O:Transcribed by Kevin Fraser
Z:Kevin Fraser
K:A
% K:Amix
% K:AMix sound=A_b
% K:{g}B{d}BMix score=_{g}B{e}A %concert Pitch
L:1/8
Q:3/8=72
M:12/8
%%MIDI drummap ^a 49
%%MIDI drummap ^g 42
%%MIDI drummap _g 46
%%MIDI drummap c 38
%%MIDI drummap F 35
%%MIDI gracedivider 100
% %MIDI gchord
%%MIDI beatstring
% %MIDI program 109 #bagpipes
%%MIDI vol 100
% %MIDI droneon
%I:MIDI=program 110
I:linebreak $
%V:M clef=treble transpose=-2 nm="Piper Melody" snm="P1 Melody" 
%%align 80
V:M clef=treble nm="Melody" snm="Melody" 
V:4 clef=treble-8 nm="Acoustic Guitar" snm="Guit9" 
V:P3 clef=treble nm="Chords" snm="Chords" 
V:P5 clef=treble nm="Bass" snm="Bass" 
V:P7 clef=treble nm="DNU" snm="DNU"
V:P9 clef=treble nm="DNU" snm="DNU"
V:BT clef=perc nm="Bass Tenor" snm="B&T"
V:S clef=perc nm="Snare" snm="Snare"
V:BB gstem=up stem=down name="Brass Bass" sname="ABCD-C" transpose=-1  octave=-1 clef=bass
V:BC gstem=up stem=down name="Brass Chord" sname="ABCD-D" transpose=-1
V:BD gstem=up stem=down name="Brass Chord 2" sname="ABCD-B" transpose=-1
V:P gstem=up stem=down name="Piano" octave=-1
% %score { M P3 P5 }
[V:M]     ||  {g}e2{A}e {g}e2{A}e {g}f{g}f{g}f- {g}f2c            |  {g}e2{A}e    {g}e2{A}e {g}f{g}f{g}f {g}f2e | {g}f2{g}f    {g}f2{g}f {g}f2e {g}e2d     | {g}                 e3 {A} e6- e{g}cd  | $
[V:P3]    ||  Aea       c3 Ada c3                                 |  Aea          c3 Ada c3                     | dfa          d3 d3 Bcd                   | [c]3-[c]ef          e2c B2A            | c3-c3            [A]3[B]3                      |
[V:P5]    ||  A3        AAG f3-ffG                                |  A3           AAG f3 AAG                    | A3-          AAA g3 Agg                  | A3-ABc              B2A G2f            | a6d3e3                                         | %19
[V:M]    | {g}e2{A}e {g}e2{A}e {g}f2{e}f {gf}g2 e    |  {ag}a2{g}a   {g}a2f {ag}a2{g}a B2A         | {g}B2{d}B    {g}B2{d}B {g}c2{d}c {g}c2 B | {g}B2A              {GAG}A6 {g}c2e     | $
[V:P3]    c3 [c]3 [d]3- [f][g][a]                   |  [g]6         [c]6                          | f2g          a2g [a]6                    | $                   %22
[V:P5]    A3 A3 A3-ABc                              |  e6           g6                            | f2e          f2e c3 {g}c2e               | $                   %22
[V:M]    | {g}f3{GdG}f6 {g}f2e                       |  {g}c3        {GdG} c6 {g}c2e               | {g}f3{GdG}f6 {g}f2e                      | {g}c3-              cBc {gBd}B3-B2 A   | {GAG}A3-A3-A3- A{g}fe                    ||  $
[V:P3]   | [f]3 [f]6 {g}f2e                          |  A3A6         {g}c2e                        | d3           d6 {g}f2e                   | e12                                    |Aea c3-cda d2c                           ||  %27          & 28
[V:P5]   | B3 B6 {g}f2e                              |  f3f6         {g}c2e                        | B3           B6 {g}f2e                   | a6                  e6                 | {GAG}A3 e3 {GAG}A3 e{g}fe                ||  %27          & 28
V:Piano sname="Piano"
%%MIDI channel 4
%%MIDI program 2
%Pentatonix v 1,2,3
|| "A"Aea [Aace]3  "F#m7"Fda [FAc]3 | "A"Aea [Aace]3  "F#m7"Fda [Fad]3
   "D"Adf [Adf]3 "E"EBg [Ceg]3 | "A"Aea [aceC]3 "E"EBg [Beg]3 | 
   "A"Aea [aceC]3 "D"Adf "E"EBg  | "F#m"Fea [Feac]3 "D"Adf [Adf]3 | 
%p3
   "E"EGB [Beg]3 "c#7"Gce "Edim"Beg | "F#m"cfa [cfa]6 z3 | "D"dfa [Adfa]3 dfa [Adfa]3 | "F#m"Acf [Acf]3 "F"cfa [Afa]3 | 
   "D"Adf [Adf]3 "D"Adf [Adf]3       | "A"Aea [aceC]3 "E4"EBg "E"[Beg]3 | %18
   "A""A"Aea [aceC]3 "F#m7"Fea [Feac]3 ||
V:P sname="Bass G"
%%MIDI channel 5
%%MIDI program 33
%Pentatonix v8
|| A,3 A,2 G, F,3 F,2 G, | A,3 A,2 G,  F,3 F,2 G, | 
   D,3 D,2 D,  E,3 E,2 E, | A,3 A,2 A,  E,,3 E,,2 E, | %12
   C,3 C,2 E,  D,3 E,2 E, | F,3 F,2 B,  D,2 D,  D,2 G, | 
   "E"E,3 E,3     "C7"C,3 "Edim"^E,2 ^E, | "F#m"F,2F, F,2F, C,2C, F,2F, | 
   "D"D,3 D,6  D,2D,    | "F#m"F,3 F,2C,C,3 C,2E, |  
   "D"D,3 D,2D, D,3 E3       | "A"F,3 F,2B, "E4"B,3 "E"F,2 E, | %18
   "A"A,3 C,2C, "F#m7"F,3  F,2 F, ||
V:Drums 
% %MIDI program 14
%Midi Channel 10/11 designated for DRUMS
% 35 - Acoustic Bass    B0
% 38 - Acoustic Snare   D1
% 39 - Hand Clap        Eb1
% 41 - Floor Tom        F1
% 42 - Closed High hat  F#1
% 43 - High floor tom   G1
% 44 - Pedal High hat   Ab1
% 45 - Low Tom          A1
% 46 - Open hi hat      Bb1
% 47 - Low-mid tom      B1
% 48 - High-mid tom     C2
% 49 - Crash            C#2
% 50 - High Tom         D2
% 51 - Ride             D#2
% 53 - Ride Bell        F2
% 55 - Splash           G2
% 57 - Crash 2          A2
% 59 - Ride 2           B2
% 81 - Triangle         A4
%%MIDI channel 10
%%MIDI program 14
%%MIDI drumon
%[V:Drums][^gB,,,]^g^g  [^gD,,]^g^g [^gB,,,]^g^g  [^gD,,]^g^g | [^gB,,,]^g^g  [^gD,,]^g^g [^gB,,,]^g^g  [^gD,,]^g^g | 
[V:Drums][^gB,,,]^g^g  [^gD,,]^g^g [^gB,,,]^g^g  [^gD,,]^g^g | [^gB,,,]^g^g  [^gD,,]^g^g [^gB,,,]^g^g  [^gD,,]^g^g | 
[V:Drums][^gB,,,]^g^g  [^gD,,]^g^g [^gB,,,]^g^g  [^gD,,]^g^g | [^gB,,,]^g^g  [^gD,,]^g^g [^gB,,,]^g^g  [^gD,,]^g^g | 
[V:Drums][^gB,,,]^g^g  [^gD,,]^g^g [^gB,,,]^g^g  [^gD,,]^g^g | [^gB,,,]^g^g  [^gD,,]^g^g [^gB,,,]^g^g  [^gD,,]^g^g | 
[V:Drums][^gB,,,]^g^g  [^gD,,]^g^g [^gB,,,]^g^g  [^gD,,]^g^g | [^gB,,,]^g^g  [^gD,,]^g^g [^gB,,,]^g^g  [^gD,,]^g^g | 
[V:Drums][^gB,,,]^g^g  [^gD,,]^g^g [^gB,,,]^g^g  [^gD,,]^g^g | [^gB,,,]^g^g  [^gD,,]^g^g [^gB,,,]^g^g  [^gD,,]^g^g | 
[V:Drums][^gB,,,]^g^g  [^gD,,]^g^g [^gB,,,]^g^g  [^gD,,]^g^g | [^gB,,,]^g^g  [^gD,,]^g^g [^gB,,,]^g^g  [^gD,,]^g^g | 
[V:Drums][^gB,,,]^g^g  [^gD,,]^g^g [^gB,,,]^g^g  [^gD,,]^g^g | 
%[V:Drums]G,,A,,B,,C,,D,,E,,F,, G,A,B,C,D,E,F, GABCDEF gabcdef g'a'b'c'd'e'f'
              

w: I've | heard there was a se-cret chord - that| Da-vid played and it pleased the lord but| you don't real-ly care  for mu-sic | do ya Well it |
w: goes like this   the  fourth the fifth the | min-or     fall  the   ma-jor     lift the | baf-fled king com-po-sing hal-le- | lu-jah - Hal-le |$
w:   lu-jah  Hal-le           | lu-jah  Hal-le            | lu-jah  Hal-le            | lu-jah  Hal-le |
w:  jah-        -Well your|


